!!!COM: Anonim
!!!CDT: [?]
!!!OTL@@LAT: Dominus natus est
!!!TXO: Latin
!!!ODT: 
!!!GTL: Hymnbook A
!!!ARL: Opactwo św. Wojciecha, Staniątki 
!!!voices:	1
**kern
*staff1
*I"[Canto]
=1-
*oclefC1
*clefG2
!*k[b-]
!*met(c|)
*M2/1
1f
1f
=2
1.e
2f
=3
1g
1g
=4
0g
=5
1f
1f
=6
2e
2f
2g
2e
=7
0f
=8
1a
1a
=9
1b
1a
=10
1g
1f
=11
1e
1e
=12
1a
1a
=13
1f
1e
=14
1f
[1f
=15
0f]
==
*-
!!title: @{OTL}, @{GTL}: @{pag}, ed. @{ENC}
!!!pag: p. 20r
!!!GTL: Hymnbook A
!!!EFL: 
!!!YEM: Creative Commons CC/BY/NC/SA 4.0
!!!ENC: Marcin Konik
!!!END: 2015-04-02
!!!EED: Marcin Konik
!!!EEV: 
!!!ONB: Encoded in vim by Marcin Konik
!!!CharacterEncoding: utf-8
!!!RDF**kern: l=long note in original notation
!!!RDF**kern: i=editorial accidental
!!muse2ps: z14jc180F
